X: 32713
T: Polka John
R: polka
M: 2/4
K: Gmajor
|:B>d ed|g>f ed|Bd 3(Bcd)|BA AG/A/|B>d {f}ed|g>f ed|Bc/d/ Bd|BG G2:|
A|:B2 {AB}AG|ED D>d|BG AG|BA AG/A/|BG {B}AG|ED DD/E/|G/A/B/G/ A>c|{A}BG G2:|

